X:8
T:Mui\~neria De Freixido
R:muineira
C:Gumersindo Parapar
H:Original key C
H:Also played in G or A
O:Galicia
Z:id:hn-muineira-8
M:6/8
L:1/8
K:D
DEF |: FEF FED | A2F DEF | FEF GAB | A2F DEF |
FEF FED | A2F DEF | FDF ECE |1 D3 DEF :|2 D2A AGF ||
|: E2B BAG | F2d dcB | cBA GFE | D2A AGF |
E2B BAG | F2d dcB | cBA GFE |1 D2A AGF :|2 D3 ABc ||
|: d3 d=cB | =c3 cBA | B3 BAG |1 A3 ABc :|2 A2F DEF ||
|: G2B BAG | A2F DEF | G2B BAG | A3 AGF | E2A AFE |1 D3 DEF :|2 D3 ||

